packages/tokens/icons/insightPanel4/size32Px.svg

<svg viewBox="0 0 32 32" fill="none" xmlns="http://www.w3.org/2000/svg" width="1em" height="1em"><path d="M23.5 7V6.5C23.5 5.39543 22.6046 4.5 21.5 4.5L6.5 4.5C5.39543 4.5 4.5 5.39543 4.5 6.5L4.5 25.5C4.5 26.6046 5.39543 27.5 6.5 27.5H21.5C22.6046 27.5 23.5 26.6046 23.5 25.5V23.5" stroke="currentColor" stroke-linecap="round"/><path d="M11.5 18.5H14.5" stroke="currentColor" stroke-linecap="round"/><circle cx="8.5" cy="18.5" r="1" stroke="currentColor"/><line x1="11.5" y1="23.5" x2="20.5" y2="23.5" stroke="currentColor" stroke-linecap="round"/><circle cx="8.5" cy="23.5" r="1" stroke="currentColor"/><path d="M11.5 13.5H15.5" stroke="currentColor" stroke-linecap="round"/><circle cx="8.5" cy="13.5" r="1" stroke="currentColor"/><rect x="14.5" y="15.5" width="3" height="6" rx="1.5" stroke="currentColor"/><rect x="19.5" y="12.5" width="3" height="9" rx="1.5" stroke="currentColor"/><rect x="24.5" y="8.5" width="3" height="13" rx="1.5" stroke="currentColor"/><rect x="7.5" y="7.5" width="13" height="2" rx="1" stroke="currentColor"/></svg>

<svg xmlns="http://www.w3.org/2000/svg" fill="none" viewBox="0 0 32 32" width="1em" height="1em"><path stroke="currentColor" stroke-linecap="round" d="M23.5 7v-.5a2 2 0 0 0-2-2h-15a2 2 0 0 0-2 2v19a2 2 0 0 0 2 2h15a2 2 0 0 0 2-2v-2m-12-5h3"/><circle cx="8.5" cy="18.5" r="1" stroke="currentColor"/><path stroke="currentColor" stroke-linecap="round" d="M11.5 23.5h9"/><circle cx="8.5" cy="23.5" r="1" stroke="currentColor"/><path stroke="currentColor" stroke-linecap="round" d="M11.5 13.5h4"/><circle cx="8.5" cy="13.5" r="1" stroke="currentColor"/><rect width="3" height="6" x="14.5" y="15.5" stroke="currentColor" rx="1.5"/><rect width="3" height="9" x="19.5" y="12.5" stroke="currentColor" rx="1.5"/><rect width="3" height="13" x="24.5" y="8.5" stroke="currentColor" rx="1.5"/><rect width="13" height="2" x="7.5" y="7.5" stroke="currentColor" rx="1"/></svg>
